usr/share/icons/big-icons/symbolic/actions/snap-node.svg

<svg xmlns="http://www.w3.org/2000/svg" viewBox="0 0 16 16">
<defs id="defs3051">
<style id="current-color-scheme" type="text/css">
.ColorScheme-Text{color:#fcfcfc}
</style>
</defs>
<path d="M11 6v1H8v1h3v1h3V6zM2 7v1h1V7zm2 0v1h1V7zm2 0v1h1V7z" class="ColorScheme-Text" style="fill:currentColor;fill-opacity:1;stroke:none"/>
</svg>

<svg xmlns="http://www.w3.org/2000/svg" viewBox="0 0 16 16">
  <defs id="defs3051">
    <style type="text/css" id="current-color-scheme">
      .ColorScheme-Text {
        color:#eff0f1;
      }
      </style>
  </defs>
  <path 
     style="fill:currentColor;fill-opacity:1;stroke:none" 
     d="M 11 6 L 11 7 L 8 7 L 8 8 L 11 8 L 11 9 L 14 9 L 14 6 L 11 6 z M 2 7 L 2 8 L 3 8 L 3 7 L 2 7 z M 4 7 L 4 8 L 5 8 L 5 7 L 4 7 z M 6 7 L 6 8 L 7 8 L 7 7 L 6 7 z "
     class="ColorScheme-Text"/>
</svg>
